svgs/sharp-solid/face-glasses.svg

<svg xmlns="http://www.w3.org/2000/svg" viewBox="0 0 512 512"><!--! Font Awesome Pro 6.6.0 by @fontawesome - https://fontawesome.com License - https://fontawesome.com/license (Commercial License) Copyright 2024 Fonticons, Inc. --><path d="M512 256c0 141.4-114.6 256-256 256S0 397.4 0 256c0-22.1 2.8-43.5 8.1-64L48 192l0 96 0 16 16 0 160 0 16 0 0-16 0-96 32 0 0 96 0 16 16 0 160 0 16 0 0-16 0-96 39.9 0c5.3 20.5 8.1 41.9 8.1 64zM256 0C363.4 0 455.4 66.2 493.4 160L464 160l0-16 0-16-16 0-160 0-16 0 0 16 0 16-32 0 0-16 0-16-16 0L64 128l-16 0 0 16 0 16-29.4 0C56.6 66.2 148.6 0 256 0zM80 272l0-80 0-32 128 0 0 112L80 272zM256 416c71.6 0 113.7-47.7 126.3-72.8l-28.6-14.3C344.9 346.3 312.4 384 256 384s-88.9-37.7-97.7-55.2l-28.6 14.3C142.3 368.3 184.4 416 256 416zm48-144l0-112 128 0 0 32 0 80-128 0zM184.4 224a24 24 0 1 0 -48 0 24 24 0 1 0 48 0zm168 24a24 24 0 1 0 0-48 24 24 0 1 0 0 48z"/></svg>

<svg xmlns="http://www.w3.org/2000/svg" viewBox="0 0 512 512"><!--! Font Awesome Pro 6.4.2 by @fontawesome - https://fontawesome.com License - https://fontawesome.com/license (Commercial License) Copyright 2023 Fonticons, Inc. --><path d="M512 256c0 141.4-114.6 256-256 256S0 397.4 0 256c0-22.1 2.8-43.5 8.1-64H48v96 16H64 224h16V288 192h32v96 16h16H448h16V288 192h39.9c5.3 20.5 8.1 41.9 8.1 64zM256 0C363.4 0 455.4 66.2 493.4 160H464V144 128H448 288 272v16 16H240V144 128H224 64 48v16 16H18.6C56.6 66.2 148.6 0 256 0zM80 272V192 160H208V272H80zM256 416c71.6 0 113.7-47.7 126.3-72.8l-28.6-14.3C344.9 346.3 312.4 384 256 384s-88.9-37.7-97.7-55.2l-28.6 14.3C142.3 368.3 184.4 416 256 416zm48-144V160H432v32 80H304zM184.4 224a24 24 0 1 0 -48 0 24 24 0 1 0 48 0zm168 24a24 24 0 1 0 0-48 24 24 0 1 0 0 48z"/></svg>
